!!!OTL: The Purple Boy, S. 82
!!!id: I0525
**kern
*clefG2
*k[]
*C:
{8c
=1
8c
4c
4e
4g
=2
8a
4.a
4e
=3
8d
4.d
4c
=4
2.c}
=5
{4cc
4b
4cc
=6
8dd
8dd
4dd
4cc
=7
2b
4a
=8
2.g}
=9
{4b
4cc
4ee
=10
8dd
2dd
8cc
=11
8cc
4.cc
4b
=12
2.a}
=13
{8b
8cc
4b
4a
=14
8b
8b
4b
8a
8g
=15
2a
4g
=16
2e
4d
=17
2.c}
=18
{2cc
8g
8a
=19
2.e
=20
2d
4c
=21
2.c}
==
*-
!!!minrhy: 8
!!!meters: 3/4 ]  ZZ[5
!!!cut: The Purple Boy, S. 82
!!!reg: Irland
!!!trd: O BOYLE, Sean: 25 Irish Folksongs, Dublin 1976
!!!rhy1:   X_X_X_  XX_.X_  XX_.X_  X__.
!!!rhy2: X_X_X_  XXX_X_  X__X_  X__.
!!!key: I0525  08  C 3/4 ]  ZZ[5
!!!mod: SECHSTONSKALA DUR ?]  AMBITUS[10
!!!kad: 15611
!!!akz: 1621_+1+275_7+2+16_77631_+1321_
!!!fot: 'a__b__c__d__aw_
!!!for: 'a__b__c__d__e__
!!!fok: '^__\__^d_\__Sd_
!! PHRAS[VOLLTAKTIG]
!!!fkt: Ballade, Sektenlied
!! IRISCHE VKL.
!! PR[13] 2K[6] 2G[14] 3K[14] 3G[5] 4A[2] 4Ü[0] 5A[0] 6K[0] 6G[0]
!! 7K[0] 7G[1] 8A[0] MEHR[0] SI[42] ABS[85] SR[20] SP[22]
!! ST[16] 2k[4] 2g[15] 3k[16] 3g[6] 4d[2] 4ü[0] 5d[0] 6k[1] 6g[0]
!! 7k[0] 7g[0] 8d[0] mehr[0] si[45] dm[-3] sr[19] sp[26]
!! 1F[2] 2F[67] 3F[10] 4F[0] LF[0] 2P[0] 3P[20] 4P[0] TRI[0] DF[4] AB[86]
!! TF[0] U3K[0] U3[0] U4[0] U4Ü[0] U5[0] U6K[0] U6[0] U7K[0] U7[2]
!! N1[16] N2K[0] N2[3] N3K[0] N3[12] N4[6] N4Ü[0] N5[22] N6K[0] N6[7]
!!!n7k: 0] N7[10] O1[14] O2K[0] O2[7] O3K[0] O3[0] HÖ[0
